svg/fluentui-system-icons/ic_fluent_diamond_20_filled.svg

<svg width="20" height="20" viewBox="0 0 20 20" fill="none" xmlns="http://www.w3.org/2000/svg">
<path d="M2.58586 11.414C1.80471 10.633 1.80471 9.36683 2.58586 8.58588L8.58752 2.58571C9.36867 1.80476 10.6352 1.80476 11.4163 2.58571L17.418 8.58588C18.1991 9.36683 18.1991 10.633 17.418 11.414L11.4163 17.4141C10.6352 18.1951 9.36867 18.1951 8.58753 17.4141L2.58586 11.414Z" fill="#212121"/>
</svg>

<svg xmlns="http://www.w3.org/2000/svg" width="20" height="20"><path d="M2.586 11.414a2 2 0 0 1 0-2.828l6.002-6a2 2 0 0 1 2.828 0l6.002 6a2 2 0 0 1 0 2.828l-6.002 6a2 2 0 0 1-2.828 0l-6.002-6Z"/></svg>
